documentation/images/rate.svg

<svg fill="none" height="24" viewBox="0 0 24 24" width="24" xmlns="http://www.w3.org/2000/svg"><g fill="#1d9bf0"><path d="m12.013 1 3.527 7.15 7.886 1.14-5.707 5.56 1.347 7.86-7.053-3.71-7.05299 3.71 1.347-7.86-5.707004-5.56 7.886004-1.14z" opacity=".2"/><path d="m4.95901 22.71 7.05399-3.71v-18l-3.52699 7.15-7.886004 1.14 5.707004 5.56z"/></g></svg>

<svg width="24" height="24" viewBox="0 0 24 24" fill="none" xmlns="http://www.w3.org/2000/svg">
<path opacity="0.2" d="M12.013 1L15.54 8.15L23.426 9.29L17.719 14.85L19.066 22.71L12.013 19L4.96001 22.71L6.30701 14.85L0.600006 9.29L8.48601 8.15L12.013 1Z" fill="#1D9BF0"/>
<path d="M4.95901 22.71L12.013 19V1L8.48601 8.15L0.600006 9.29L6.30701 14.85L4.95901 22.71V22.71Z" fill="#1D9BF0"/>
</svg>
